packages/tokens/icons/heartFilled/size64Px.svg

<svg viewBox="0 0 64 64" fill="none" xmlns="http://www.w3.org/2000/svg" width="1em" height="1em"><path d="M55.7931 13.3303C49.895 6.56002 39.9856 6.18957 33.6607 12.5031L32 14.1601L30.3393 12.5031C24.0144 6.18957 14.105 6.56002 8.20677 13.3303C2.30859 20.1006 2.65467 30.7103 8.98036 37.0214L9.03908 37.08L31.2935 59.2948C31.6839 59.6845 32.3161 59.6845 32.7064 59.2948L54.9616 37.08L55.0203 37.0214C61.3452 30.7103 61.6913 20.1006 55.7931 13.3303Z" fill="currentColor"/></svg>

<svg xmlns="http://www.w3.org/2000/svg" fill="none" viewBox="0 0 64 64" width="1em" height="1em"><path fill="currentColor" d="M55.793 13.33c-5.898-6.77-15.807-7.14-22.132-.827L32 14.16l-1.66-1.657C24.013 6.19 14.104 6.56 8.206 13.33s-5.552 17.38.773 23.691l.06.059 22.254 22.215a1 1 0 0 0 1.412 0L54.962 37.08l.058-.059c6.325-6.31 6.671-16.92.773-23.69Z"/></svg>
